svgs/thin/blender-phone.svg

<svg xmlns="http://www.w3.org/2000/svg" viewBox="0 0 576 512"><!--! Font Awesome Pro 6.3.0 by @fontawesome - https://fontawesome.com License - https://fontawesome.com/license (Commercial License) Copyright 2023 Fonticons, Inc. --><path d="M479.1 384H224c-35.34 0-63.1 28.65-63.1 63.1l-.0052 32c0 17.67 14.33 31.1 31.1 31.1L511.1 512c17.67 0 32-14.33 32-31.1l.0019-31.1C543.1 412.7 515.3 384 479.1 384zM528 480c0 8.822-7.178 16-15.1 16H192c-8.822 0-15.1-7.178-15.1-16v-32c0-26.47 21.53-48 47.1-48h255.1c26.47 0 47.1 21.53 47.1 48V480zM224.7 359.1c4.406-.4062 7.64-4.312 7.234-8.703L200.8 16h356.9l-16.37 64h-149.3c-4.422 0-7.1 3.578-7.1 8S387.6 96 392 96h145.2L516.8 176h-124.8c-4.422 0-7.1 3.578-7.1 8S387.6 192 392 192h120.7l-20.47 80h-100.2c-4.422 0-7.1 3.578-7.1 8S387.6 288 392 288h96.11l-15.86 62.02c-1.094 4.281 1.484 8.641 5.765 9.734c4.603 1.178 8.726-1.819 9.734-5.766l87.1-344C577 4.942 573.2 0 567.1 0L191.1 .006c-6.085 0-8.239 5.639-7.958 8.728l31.1 344C216.4 357.1 220.5 360.3 224.7 359.1zM167.4 326L142.8 265.4C138.8 255.6 128.7 249.7 118.1 250.6L81.23 254.2c-13.41-40.33-13.41-84.02 0-124.3l36.83 3.578c10.48 1.203 20.77-5 24.73-14.75l24.61-60.5c4.547-10.7 .5469-23-9.515-29.23L120.3 5.875C103.5-4.391 81.53-.8594 68.12 14.2c-91.58 102.5-90.73 256.5 1.984 358.1C77.18 380 87.1 384.1 98.89 384.1c7.437 0 14.91-1.891 21.27-5.797l37.76-23.14C167.8 349 171.8 336.8 167.4 326zM149.5 341.5l-37.73 23.12c-9.031 5.547-23.27 4.062-29.89-3.125C-5.252 265.1-6.049 121.2 80.07 24.84c8.611-9.687 22.08-11.26 31.84-5.328L149.5 42.61c3.297 2.047 4.641 5.984 3.156 9.484L127.1 112.7C126.7 115.9 123 117.1 119.6 117.6L70.39 112.8c-6.521 17.66-30.47 76.05 0 158.6l49.26-4.797c3.687-.1875 7.015 1.656 8.328 4.891l24.66 60.61C154 335.5 152.7 339.5 149.5 341.5zM352 416c-17.67 0-31.1 14.33-31.1 31.1s14.33 31.1 31.1 31.1c17.67 0 31.1-14.33 31.1-31.1S369.7 416 352 416zM352 464c-8.822 0-15.1-7.178-15.1-16s7.178-16 15.1-16c8.822 0 15.1 7.178 15.1 16S360.8 464 352 464z"/></svg>

<svg xmlns="http://www.w3.org/2000/svg" viewBox="0 0 576 512"><!-- Font Awesome Pro 6.0.0-alpha2 by @fontawesome - https://fontawesome.com License - https://fontawesome.com/license (Commercial License) --><path d="M480.002 384H224.008C188.663 384 160.01 412.654 160.01 448V480C160.01 497.674 174.337 512 192.009 512H512.001C529.674 512 544 497.674 544 480V448C544 412.654 515.348 384 480.002 384ZM528 480C528 488.822 520.823 496 512.001 496H192.009C183.187 496 176.009 488.822 176.009 480V448C176.009 421.533 197.542 400 224.008 400H480.002C506.468 400 528 421.533 528 448V480ZM224.742 359.969C229.149 359.562 232.383 355.656 231.977 351.266L200.79 16H557.703L541.33 80H392.004C387.582 80 384.004 83.578 384.004 88S387.582 96 392.004 96H537.236L516.77 176H392.004C387.582 176 384.004 179.578 384.004 184S387.582 192 392.004 192H512.676L492.21 272H392.004C387.582 272 384.004 275.578 384.004 280S387.582 288 392.004 288H488.117L472.252 350.016C471.158 354.297 473.736 358.656 478.017 359.75C482.621 360.928 486.743 357.931 487.751 353.984L575.749 9.984C577.034 4.942 573.221 0 567.999 0H192.009C185.924 0 183.76 5.645 184.04 8.734L216.04 352.734C216.446 357.141 220.493 360.328 224.742 359.969ZM167.447 326.031L142.791 265.406C138.807 255.641 128.698 249.672 118.073 250.641L81.231 254.234C67.825 213.906 67.825 170.219 81.231 129.906L118.058 133.484C128.542 134.688 138.823 128.484 142.791 118.734L167.4 58.234C171.947 47.531 167.947 35.234 157.885 29L120.261 5.875C103.464 -4.391 81.527 -0.859 68.121 14.203C-23.454 116.703 -22.611 270.656 70.106 372.313C77.184 380 87.996 384.062 98.886 384.062C106.324 384.062 113.792 382.172 120.151 378.266L157.916 355.125C167.806 349 171.822 336.75 167.447 326.031ZM149.526 341.5L111.792 364.625C102.761 370.172 88.527 368.687 81.902 361.5C-5.252 265.953 -6.049 121.234 80.074 24.844C88.685 15.157 102.155 13.587 111.917 19.516L149.479 42.609C152.776 44.656 154.119 48.594 152.635 52.094L127.979 112.688C126.651 115.922 123.042 117.953 119.636 117.562L70.387 112.781C63.866 130.441 39.914 188.835 70.387 271.359L119.651 266.563C123.339 266.375 126.667 268.219 127.979 271.453L152.635 332.063C154.041 335.547 152.729 339.516 149.526 341.5ZM352.005 416C334.333 416 320.006 430.326 320.006 448S334.333 480 352.005 480C369.678 480 384.004 465.674 384.004 448S369.678 416 352.005 416ZM352.005 464C343.183 464 336.005 456.822 336.005 448S343.183 432 352.005 432C360.827 432 368.004 439.178 368.004 448S360.827 464 352.005 464Z"/></svg>
